X: 1036
T: Captain Digby's Farewel.
%R: minuet, waltz, jig
B: Henry Playford "Apollo's Banquet", London 1687 (5th Edition)
F: https://archive.org/details/apollosbanquetco01rugg
Z: 2017 John Chambers <jc:trillian.mit.edu>
M: 6/8
L: 1/8
K: G
% - - - - - - - - - -
g2 |\
d2B2B2 B3AG2 | A2c2c2 c3d(e/f/g) |\
d2B2A2 c3FGA | B2G2G2 G4 :: g2 |\
g3fge f2f2g2 | e3fed ^c4a2 |
e2efge =f2f2g2 | e2e3d d4g2 |\
B2B2e2 A2A2d2 | B2cBAG F4G2 |\
E2E2A2 D2D2G2 | G>AA3G G4 |]
% - - - - - - - - - -

%%sep 1 1 500
%%sep 1 1 500

